X: 3178
T: KITTLE CATTLE
Q: "Reel."
R: Reel.
%R: reel
B: James Kerr "Merry Melodies" v.3 p.21 #178
Z: 2016 John Chambers <jc:trillian.mit.edu>
M: C
L: 1/8
K: Bb
d |\
B2(FE) DB,B,D | CccB ABcd |\
B2(FE) DB,DF | GcAF B3 ::\
d |\
Bcde fBdB | edcB AFGA |\
[1 Bcde fdBd | cecA B3 :|\
[2 B2(FE) DB,DF | GcAF B3 |]

%%sep 1 1 500
%%sep 1 1 500

